; generated by Slic3r 0.9.9-dev on 2013-10-12 at 00:38:04

; layer_height = 0.25
; perimeters = 3
; top_solid_layers = 3
; bottom_solid_layers = 3
; fill_density = 0.4
; perimeter_speed = 40
; infill_speed = 70
; travel_speed = 200
; nozzle_diameter = 0.5
; filament_diameter = 2.93
; extrusion_multiplier = 1
; perimeters extrusion width = 0.84mm
; infill extrusion width = 0.84mm
; solid infill extrusion width = 0.84mm
; top infill extrusion width = 0.84mm
; first layer extrusion width = 0.30mm

G21 ; set units to millimeters
M107
M190 S55 ; wait for bed temperature to be reached
M104 S185 ; set temperature
G28 ; home all axes
M109 S185 ; wait for temperature to be reached
G90 ; use absolute coordinates
G92 E0
M82 ; use absolute distances for extrusion
G1 F3000.000 E-3.00000
G1 Z0.500
G92 E0
G1 X62.530 Y54.203 F12000.000
G1 Z0.300
G1 F3000.000 E3.00000
G1 X63.280 Y53.703 F1680.000 E3.01375
G1 X63.820 Y53.423 E3.02303
G1 X64.370 Y53.173 E3.03225
G1 X64.940 Y52.973 E3.04147
G1 X65.230 Y52.893 E3.04606
G1 X65.820 Y52.753 E3.05531
G1 X66.420 Y52.663 E3.06457
G1 X67.330 Y52.613 E3.07847
G1 X77.330 Y52.613 E3.23105
G1 X77.930 Y52.633 E3.24021
G1 X104.920 Y54.633 E3.65314
G1 X105.370 Y54.683 E3.66005
G1 X109.250 Y55.193 E3.71976
G1 X109.820 Y55.293 E3.72859
G1 X165.920 Y66.833 E4.60247
G1 X166.490 Y67.003 E4.61155
G1 X167.330 Y67.323 E4.62526
G1 X167.860 Y67.593 E4.63434
G1 X168.630 Y68.063 E4.64810
G1 X169.330 Y68.623 E4.66178
G1 X169.770 Y69.033 E4.67096
G1 X170.360 Y69.713 E4.68469
G1 X170.710 Y70.193 E4.69376
G1 X170.870 Y70.453 E4.69841
G1 X171.160 Y70.973 E4.70750
G1 X171.420 Y71.513 E4.71664
G1 X171.530 Y71.793 E4.72123
G1 X171.800 Y72.643 E4.73484
G1 X171.980 Y73.523 E4.74854
G1 X177.030 Y121.863 E5.49012
G1 X177.050 Y122.233 E5.49577
G1 X177.040 Y122.613 E5.50157
G1 X176.980 Y123.363 E5.51305
G1 X176.360 Y128.113 E5.58614
G1 X176.110 Y129.143 E5.60231
G1 X175.860 Y129.813 E5.61322
G1 X174.020 Y134.233 E5.68627
G1 X173.870 Y134.543 E5.69153
G1 X173.520 Y135.143 E5.70212
G1 X173.120 Y135.723 E5.71287
G1 X170.420 Y139.253 E5.78068
G1 X169.720 Y140.053 E5.79690
G1 X168.920 Y140.753 E5.81312
G1 X165.390 Y143.453 E5.88093
G1 X164.810 Y143.853 E5.89168
G1 X164.210 Y144.203 E5.90228
G1 X163.580 Y144.493 E5.91286
G1 X159.480 Y146.193 E5.98058
G1 X158.810 Y146.443 E5.99149
G1 X158.470 Y146.533 E5.99686
G1 X157.780 Y146.693 E6.00766
G1 X157.430 Y146.743 E6.01306
G1 X153.030 Y147.313 E6.08075
G1 X151.990 Y147.383 E6.09666
G1 X100.990 Y147.383 E6.87480
G1 X99.950 Y147.313 E6.89070
G1 X95.540 Y146.743 E6.95855
G1 X64.940 Y142.683 E7.42953
G1 X64.320 Y142.573 E7.43914
G1 X63.710 Y142.423 E7.44872
G1 X62.830 Y142.103 E7.46301
G1 X62.260 Y141.833 E7.47263
G1 X61.980 Y141.673 E7.47755
G1 X61.710 Y141.513 E7.48234
G1 X61.200 Y141.163 E7.49178
G1 X26.200 Y115.163 E8.15702
G1 X25.500 Y114.583 E8.17089
G1 X25.080 Y114.163 E8.17995
G1 X24.690 Y113.703 E8.18915
G1 X24.330 Y113.223 E8.19831
G1 X24.010 Y112.713 E8.20750
G1 X23.610 Y111.903 E8.22128
G1 X23.390 Y111.343 E8.23046
G1 X23.140 Y110.483 E8.24412
G1 X22.990 Y109.593 E8.25789
G1 X22.960 Y109.293 E8.26250
G1 X22.940 Y108.693 E8.27165
G1 X22.940 Y103.993 E8.34337
G1 X22.970 Y103.373 E8.35284
G1 X24.310 Y86.043 E8.61804
G1 X24.370 Y85.443 E8.62724
G1 X24.490 Y84.863 E8.63628
G1 X24.640 Y84.283 E8.64542
G1 X24.840 Y83.713 E8.65464
G1 X25.080 Y83.163 E8.66379
G1 X25.510 Y82.383 E8.67738
G1 X25.850 Y81.883 E8.68661
G1 X26.220 Y81.413 E8.69573
G1 X26.630 Y80.973 E8.70491
G1 X27.300 Y80.373 E8.71863
G1 X27.540 Y80.193 E8.72321
G1 X62.489 Y54.234 E9.38746
G1 X62.730 Y54.483 F12000.000
G1 X63.500 Y53.973 F1680.000 E9.40155
G1 X63.770 Y53.823 E9.40626
G1 X64.330 Y53.563 E9.41568
G1 X65.200 Y53.253 E9.42977
G1 X66.100 Y53.053 E9.44384
G1 X66.410 Y53.013 E9.44861
G1 X67.020 Y52.963 E9.45795
G1 X77.330 Y52.963 E9.61525
G1 X77.900 Y52.983 E9.62396
G1 X105.330 Y55.023 E10.04363
G1 X109.210 Y55.533 E10.10334
G1 X109.750 Y55.623 E10.11169
G1 X165.550 Y67.103 E10.98090
G1 X166.390 Y67.323 E10.99415
G1 X167.190 Y67.633 E11.00724
G1 X167.950 Y68.033 E11.02035
G1 X168.430 Y68.343 E11.02907
G1 X169.110 Y68.883 E11.04231
G1 X169.720 Y69.483 E11.05537
G1 X170.090 Y69.923 E11.06414
G1 X170.580 Y70.633 E11.07730
G1 X170.980 Y71.383 E11.09027
G1 X171.310 Y72.183 E11.10348
G1 X171.540 Y73.013 E11.11662
G1 X171.640 Y73.573 E11.12530
G1 X176.690 Y121.883 E11.86641
G1 X176.700 Y122.593 E11.87725
G1 X176.640 Y123.313 E11.88827
G1 X176.020 Y128.053 E11.96121
G1 X175.780 Y129.043 E11.97675
G1 X175.550 Y129.673 E11.98698
G1 X173.710 Y134.083 E12.05989
G1 X173.230 Y134.963 E12.07519
G1 X172.850 Y135.513 E12.08539
G1 X170.150 Y139.043 E12.15319
G1 X169.480 Y139.813 E12.16877
G1 X168.710 Y140.483 E12.18434
G1 X165.180 Y143.183 E12.25215
G1 X164.630 Y143.563 E12.26235
G1 X164.340 Y143.733 E12.26748
G1 X164.050 Y143.893 E12.27253
G1 X163.440 Y144.183 E12.28284
G1 X159.340 Y145.883 E12.35056
G1 X158.710 Y146.113 E12.36079
G1 X158.380 Y146.203 E12.36601
G1 X157.720 Y146.353 E12.37634
G1 X157.380 Y146.403 E12.38158
G1 X152.980 Y146.973 E12.44928
G1 X151.990 Y147.033 E12.46441
G1 X100.990 Y147.033 E13.24255
G1 X100.000 Y146.973 E13.25768
G1 X95.590 Y146.403 E13.32553
G1 X64.990 Y142.343 E13.79651
G1 X64.390 Y142.243 E13.80579
G1 X63.520 Y142.003 E13.81956
G1 X62.690 Y141.663 E13.83324
G1 X62.150 Y141.383 E13.84253
G1 X61.640 Y141.063 E13.85171
G1 X26.400 Y114.883 E14.52153
G1 X26.160 Y114.703 E14.52611
G1 X25.710 Y114.313 E14.53520
G1 X25.090 Y113.653 E14.54901
G1 X24.730 Y113.183 E14.55804
G1 X24.400 Y112.683 E14.56719
G1 X24.110 Y112.163 E14.57627
G1 X23.860 Y111.613 E14.58549
G1 X23.650 Y111.053 E14.59461
G1 X23.490 Y110.473 E14.60379
G1 X23.340 Y109.593 E14.61741
G1 X23.290 Y108.993 E14.62660
G1 X23.290 Y103.993 E14.70289
G1 X23.310 Y103.403 E14.71190
G1 X24.650 Y86.073 E14.97710
G1 X24.720 Y85.473 E14.98632
G1 X24.830 Y84.883 E14.99547
G1 X24.990 Y84.303 E15.00465
G1 X25.320 Y83.473 E15.01828
G1 X25.740 Y82.673 E15.03207
G1 X26.070 Y82.173 E15.04121
G1 X26.430 Y81.703 E15.05024
G1 X27.050 Y81.043 E15.06406
G1 X27.270 Y80.843 E15.06860
G1 X27.740 Y80.473 E15.07772
G1 X62.689 Y54.514 E15.74197
G1 X62.930 Y54.753 F12000.000
G1 X63.670 Y54.273 F1680.000 E15.75543
G1 X64.200 Y54.003 E15.76450
G1 X64.740 Y53.773 E15.77346
G1 X65.300 Y53.583 E15.78248
G1 X65.870 Y53.443 E15.79143
G1 X66.740 Y53.323 E15.80483
G1 X67.040 Y53.303 E15.80942
G1 X77.330 Y53.303 E15.96642
G1 X77.870 Y53.323 E15.97467
G1 X104.860 Y55.323 E16.38760
G1 X105.280 Y55.363 E16.39404
G1 X109.160 Y55.873 E16.45375
G1 X109.690 Y55.963 E16.46195
G1 X165.490 Y67.443 E17.33116
G1 X166.030 Y67.573 E17.33964
G1 X166.830 Y67.853 E17.35257
G1 X167.590 Y68.223 E17.36547
G1 X168.310 Y68.683 E17.37850
G1 X168.960 Y69.213 E17.39130
G1 X169.370 Y69.613 E17.40004
G1 X169.740 Y70.033 E17.40858
G1 X170.080 Y70.483 E17.41719
G1 X170.380 Y70.963 E17.42582
G1 X170.640 Y71.463 E17.43442
G1 X170.870 Y71.983 E17.44310
G1 X171.130 Y72.783 E17.45593
G1 X171.300 Y73.613 E17.46886
G1 X176.350 Y121.893 E18.20952
G1 X176.360 Y122.583 E18.22005
G1 X176.300 Y123.273 E18.23061
G1 X175.730 Y127.673 E18.29831
G1 X175.620 Y128.313 E18.30822
G1 X175.540 Y128.623 E18.31310
G1 X175.350 Y129.243 E18.32300
G1 X175.230 Y129.543 E18.32793
G1 X173.400 Y133.943 E18.40064
G1 X173.110 Y134.503 E18.41026
G1 X172.940 Y134.783 E18.41526
G1 X172.580 Y135.303 E18.42491
G1 X169.880 Y138.833 E18.49271
G1 X169.460 Y139.333 E18.50268
G1 X169.000 Y139.793 E18.51260
G1 X168.500 Y140.213 E18.52257
G1 X164.970 Y142.913 E18.59037
G1 X164.450 Y143.273 E18.60002
G1 X164.170 Y143.443 E18.60502
G1 X163.610 Y143.733 E18.61464
G1 X163.310 Y143.863 E18.61963
G1 X159.210 Y145.563 E18.68735
G1 X158.910 Y145.683 E18.69228
G1 X158.290 Y145.873 E18.70218
G1 X157.980 Y145.953 E18.70706
G1 X157.340 Y146.063 E18.71697
G1 X152.940 Y146.633 E18.78466
G1 X151.990 Y146.693 E18.79919
G1 X100.990 Y146.693 E19.57733
G1 X100.040 Y146.633 E19.59186
G1 X95.630 Y146.063 E19.65970
G1 X65.030 Y142.003 E20.13068
G1 X64.110 Y141.823 E20.14498
G1 X63.230 Y141.523 E20.15917
G1 X62.940 Y141.403 E20.16396
G1 X62.390 Y141.123 E20.17337
G1 X61.600 Y140.613 E20.18772
G1 X26.600 Y114.613 E20.85296
G1 X26.160 Y114.253 E20.86164
G1 X25.740 Y113.863 E20.87038
G1 X25.360 Y113.433 E20.87914
G1 X25.010 Y112.983 E20.88784
G1 X24.690 Y112.503 E20.89664
G1 X24.410 Y112.003 E20.90538
G1 X24.070 Y111.213 E20.91850
G1 X23.900 Y110.673 E20.92714
G1 X23.770 Y110.113 E20.93591
G1 X23.680 Y109.553 E20.94457
G1 X23.630 Y108.983 E20.95330
G1 X23.630 Y103.993 E21.02943
G1 X23.650 Y103.423 E21.03814
G1 X25.020 Y85.813 E21.30764
G1 X25.110 Y85.243 E21.31644
G1 X25.240 Y84.683 E21.32521
G1 X25.410 Y84.143 E21.33385
G1 X25.520 Y83.873 E21.33830
G1 X25.750 Y83.353 E21.34697
G1 X26.030 Y82.853 E21.35572
G1 X26.180 Y82.613 E21.36004
G1 X26.520 Y82.143 E21.36889
G1 X26.880 Y81.703 E21.37756
G1 X27.080 Y81.493 E21.38199
G1 X27.500 Y81.103 E21.39073
G1 X27.940 Y80.743 E21.39940
G1 X62.889 Y54.784 E22.06365
G1 X63.140 Y55.033 F12000.000
G1 X63.380 Y54.853 F1680.000 E22.06823
G1 X63.890 Y54.543 E22.07733
G1 X64.700 Y54.153 E22.09105
G1 X65.270 Y53.953 E22.10027
G1 X65.840 Y53.803 E22.10926
G1 X66.140 Y53.743 E22.11393
G1 X66.730 Y53.673 E22.12299
G1 X67.330 Y53.643 E22.13216
G1 X77.330 Y53.643 E22.28474
G1 X77.850 Y53.663 E22.29268
G1 X104.840 Y55.663 E22.70561
G1 X109.120 Y56.213 E22.77145
G1 X165.420 Y67.783 E23.64841
G1 X166.220 Y67.993 E23.66103
G1 X166.480 Y68.083 E23.66523
G1 X166.990 Y68.303 E23.67370
G1 X167.490 Y68.563 E23.68230
G1 X167.960 Y68.853 E23.69073
G1 X168.180 Y69.013 E23.69488
G1 X168.820 Y69.543 E23.70756
G1 X169.210 Y69.943 E23.71608
G1 X169.730 Y70.593 E23.72878
G1 X170.030 Y71.053 E23.73716
G1 X170.300 Y71.543 E23.74570
G1 X170.530 Y72.053 E23.75423
G1 X170.790 Y72.843 E23.76692
G1 X170.860 Y73.113 E23.77118
G1 X170.960 Y73.653 E23.77956
G1 X176.010 Y121.913 E24.51992
G1 X176.020 Y122.243 E24.52495
G1 X176.000 Y122.903 E24.53503
G1 X175.390 Y127.623 E24.60764
G1 X175.210 Y128.533 E24.62180
G1 X174.910 Y129.413 E24.63598
G1 X173.210 Y133.513 E24.70370
G1 X172.900 Y134.173 E24.71483
G1 X172.720 Y134.493 E24.72043
G1 X172.520 Y134.793 E24.72593
G1 X169.600 Y138.623 E24.79942
G1 X169.410 Y138.863 E24.80409
G1 X168.990 Y139.323 E24.81359
G1 X168.530 Y139.743 E24.82309
G1 X168.290 Y139.933 E24.82776
G1 X164.760 Y142.633 E24.89557
G1 X164.160 Y143.053 E24.90675
G1 X163.840 Y143.233 E24.91235
G1 X163.180 Y143.543 E24.92347
G1 X159.080 Y145.243 E24.99120
G1 X158.200 Y145.543 E25.00538
G1 X157.290 Y145.723 E25.01953
G1 X152.890 Y146.293 E25.08723
G1 X151.990 Y146.353 E25.10099
G1 X100.990 Y146.353 E25.87914
G1 X100.080 Y146.293 E25.89305
G1 X65.080 Y141.663 E26.43172
G1 X64.200 Y141.483 E26.44543
G1 X63.640 Y141.313 E26.45436
G1 X63.080 Y141.093 E26.46354
G1 X62.300 Y140.673 E26.47705
G1 X61.810 Y140.333 E26.48615
G1 X26.580 Y114.163 E27.15576
G1 X25.950 Y113.583 E27.16883
G1 X25.570 Y113.163 E27.17747
G1 X25.070 Y112.473 E27.19047
G1 X24.920 Y112.223 E27.19492
G1 X24.660 Y111.723 E27.20352
G1 X24.430 Y111.203 E27.21219
G1 X24.250 Y110.663 E27.22088
G1 X24.110 Y110.103 E27.22968
G1 X23.990 Y109.263 E27.24263
G1 X23.970 Y108.693 E27.25133
G1 X23.970 Y103.993 E27.32304
G1 X23.990 Y103.453 E27.33129
G1 X25.360 Y85.833 E27.60094
G1 X25.510 Y84.993 E27.61396
G1 X25.670 Y84.443 E27.62270
G1 X25.870 Y83.903 E27.63149
G1 X26.260 Y83.143 E27.64452
G1 X26.560 Y82.653 E27.65329
G1 X26.730 Y82.423 E27.65765
G1 X27.090 Y81.983 E27.66632
G1 X27.290 Y81.773 E27.67075
G1 X27.920 Y81.193 E27.68381
G1 X63.099 Y55.064 E28.35242
G1 X63.340 Y55.303 F12000.000
G1 X63.810 Y54.983 F1680.000 E28.36110
G1 X64.310 Y54.703 E28.36984
G1 X64.830 Y54.473 E28.37852
G1 X65.640 Y54.203 E28.39154
G1 X66.200 Y54.083 E28.40028
G1 X66.760 Y54.013 E28.40889
G1 X67.330 Y53.983 E28.41760
G1 X77.330 Y53.983 E28.57018
G1 X77.820 Y54.003 E28.57766
G1 X104.810 Y56.003 E28.99060
G1 X109.070 Y56.553 E29.05613
G1 X109.550 Y56.633 E29.06356
G1 X165.350 Y68.113 E29.93277
G1 X166.140 Y68.323 E29.94524
G1 X166.890 Y68.633 E29.95762
G1 X167.610 Y69.033 E29.97019
G1 X168.050 Y69.343 E29.97840
G1 X168.470 Y69.693 E29.98675
G1 X169.050 Y70.273 E29.99926
G1 X169.390 Y70.703 E30.00762
G1 X169.830 Y71.383 E30.01998
G1 X170.080 Y71.873 E30.02838
G1 X170.370 Y72.633 E30.04079
G1 X170.450 Y72.893 E30.04494
G1 X170.620 Y73.693 E30.05742
G1 X175.640 Y121.623 E30.79272
G1 X175.680 Y122.253 E30.80235
G1 X175.620 Y123.183 E30.81657
G1 X175.050 Y127.583 E30.88426
G1 X175.000 Y127.933 E30.88966
G1 X174.830 Y128.613 E30.90035
G1 X174.600 Y129.283 E30.91116
G1 X172.900 Y133.383 E30.97888
G1 X172.600 Y134.013 E30.98953
G1 X172.420 Y134.313 E30.99487
G1 X172.030 Y134.883 E31.00540
G1 X169.110 Y138.693 E31.07865
G1 X168.620 Y139.203 E31.08944
G1 X168.360 Y139.443 E31.09484
G1 X168.080 Y139.663 E31.10027
G1 X164.550 Y142.363 E31.16808
G1 X164.270 Y142.563 E31.17333
G1 X163.680 Y142.933 E31.18395
G1 X163.050 Y143.233 E31.19460
G1 X158.950 Y144.933 E31.26232
G1 X158.280 Y145.163 E31.27313
G1 X157.940 Y145.253 E31.27849
G1 X157.600 Y145.333 E31.28382
G1 X157.250 Y145.383 E31.28922
G1 X152.850 Y145.953 E31.35691
G1 X151.990 Y146.013 E31.37007
G1 X100.990 Y146.013 E32.14821
G1 X100.130 Y145.953 E32.16136
G1 X95.720 Y145.383 E32.22921
G1 X65.120 Y141.323 E32.70019
G1 X64.560 Y141.223 E32.70887
G1 X64.020 Y141.083 E32.71738
G1 X63.490 Y140.893 E32.72597
G1 X62.720 Y140.523 E32.73900
G1 X62.010 Y140.063 E32.75191
G1 X27.010 Y114.063 E33.41715
G1 X26.590 Y113.723 E33.42540
G1 X26.390 Y113.533 E33.42961
G1 X26.010 Y113.153 E33.43781
G1 X25.670 Y112.733 E33.44605
G1 X25.220 Y112.053 E33.45849
G1 X24.970 Y111.573 E33.46675
G1 X24.750 Y111.073 E33.47509
G1 X24.580 Y110.563 E33.48329
G1 X24.450 Y110.043 E33.49147
G1 X24.360 Y109.503 E33.49982
G1 X24.310 Y108.693 E33.51220
G1 X24.310 Y103.993 E33.58391
G1 X24.330 Y103.473 E33.59185
G1 X25.700 Y85.873 E33.86120
G1 X25.850 Y85.073 E33.87362
G1 X26.000 Y84.553 E33.88188
G1 X26.190 Y84.043 E33.89018
G1 X26.550 Y83.313 E33.90260
G1 X26.850 Y82.853 E33.91098
G1 X27.170 Y82.423 E33.91916
G1 X27.730 Y81.823 E33.93168
G1 X27.930 Y81.633 E33.93589
G1 X28.350 Y81.293 E33.94413
G1 X63.299 Y55.334 E34.60838
G1 X63.550 Y55.583 F12000.000
G1 X63.990 Y55.273 F1680.000 E34.61659
G1 X64.470 Y55.013 E34.62492
G1 X64.710 Y54.893 E34.62901
G1 X65.210 Y54.693 E34.63723
G1 X65.730 Y54.533 E34.64553
G1 X65.990 Y54.473 E34.64960
G1 X66.790 Y54.353 E34.66195
G1 X67.060 Y54.333 E34.66608
G1 X77.800 Y54.343 E34.82994
G1 X104.790 Y56.343 E35.24288
G1 X109.030 Y56.893 E35.30811
G1 X165.280 Y68.453 E36.18430
G1 X165.800 Y68.583 E36.19247
G1 X166.550 Y68.853 E36.20464
G1 X166.790 Y68.963 E36.20867
G1 X167.260 Y69.223 E36.21686
G1 X167.710 Y69.513 E36.22503
G1 X168.130 Y69.843 E36.23318
G1 X168.700 Y70.403 E36.24537
G1 X168.880 Y70.603 E36.24948
G1 X169.350 Y71.253 E36.26171
G1 X169.740 Y71.953 E36.27394
G1 X169.940 Y72.443 E36.28202
G1 X170.110 Y72.953 E36.29022
G1 X170.280 Y73.733 E36.30240
G1 X175.320 Y121.953 E37.04213
G1 X175.330 Y122.553 E37.05129
G1 X175.280 Y123.133 E37.06017
G1 X174.710 Y127.533 E37.12787
G1 X174.590 Y128.193 E37.13810
G1 X174.400 Y128.843 E37.14843
G1 X174.280 Y129.153 E37.15351
G1 X172.580 Y133.253 E37.22123
G1 X172.300 Y133.843 E37.23119
G1 X171.950 Y134.413 E37.24140
G1 X169.060 Y138.203 E37.31412
G1 X168.850 Y138.463 E37.31922
G1 X168.380 Y138.953 E37.32958
G1 X167.870 Y139.393 E37.33985
G1 X164.340 Y142.093 E37.40766
G1 X164.080 Y142.283 E37.41257
G1 X163.510 Y142.633 E37.42278
G1 X162.920 Y142.913 E37.43274
G1 X158.820 Y144.613 E37.50047
G1 X158.510 Y144.733 E37.50554
