; generated by Slic3r 0.9.9-dev on 2013-10-12 at 06:17:52

; layer_height = 0.25
; perimeters = 3
; top_solid_layers = 3
; bottom_solid_layers = 3
; fill_density = 0.4
; perimeter_speed = 40
; infill_speed = 70
; travel_speed = 200
; nozzle_diameter = 0.5
; filament_diameter = 2.93
; extrusion_multiplier = 1
; perimeters extrusion width = 0.84mm
; infill extrusion width = 0.84mm
; solid infill extrusion width = 0.84mm
; top infill extrusion width = 0.84mm
; first layer extrusion width = 0.25mm

G21 ; set units to millimeters
M107
M190 S55 ; wait for bed temperature to be reached
M104 S170 ; set temperature
G28 ; home all axes
M109 S170 ; wait for temperature to be reached
G90 ; use absolute coordinates
G92 E0
M82 ; use absolute distances for extrusion
G1 F3000.000 E-3.00000
G1 Z0.450
G92 E0
G1 X17.630 Y78.750 F12000.000
G1 Z0.250
G1 F3000.000 E3.00000
G1 X18.480 Y78.590 F1680.000 E3.00974
G1 X19.060 Y78.540 E3.01629
G1 X66.560 Y75.840 E3.55194
G1 X67.000 Y75.830 E3.55690
G1 X133.440 Y75.840 E4.30493
G1 X180.940 Y78.540 E4.84058
G1 X181.520 Y78.590 E4.84714
G1 X182.370 Y78.750 E4.85687
G1 X182.930 Y78.910 E4.86343
G1 X183.470 Y79.110 E4.86991
G1 X183.990 Y79.350 E4.87636
G1 X184.500 Y79.630 E4.88291
G1 X184.990 Y79.940 E4.88944
G1 X185.450 Y80.290 E4.89595
G1 X186.090 Y80.870 E4.90567
G1 X186.660 Y81.530 E4.91549
G1 X187.000 Y81.990 E4.92193
G1 X187.300 Y82.480 E4.92840
G1 X187.570 Y83.000 E4.93500
G1 X187.690 Y83.260 E4.93822
G1 X187.980 Y84.070 E4.94791
G1 X188.130 Y84.630 E4.95443
G1 X188.240 Y85.200 E4.96097
G1 X188.320 Y86.060 E4.97069
G1 X188.320 Y98.650 E5.11244
G1 X188.270 Y99.270 E5.11944
G1 X188.170 Y99.890 E5.12651
G1 X187.930 Y100.800 E5.13711
G1 X187.710 Y101.380 E5.14409
G1 X187.290 Y102.220 E5.15467
G1 X177.120 Y118.500 E5.37078
G1 X176.790 Y118.980 E5.37734
G1 X176.430 Y119.440 E5.38392
G1 X176.040 Y119.870 E5.39046
G1 X175.830 Y120.070 E5.39372
G1 X175.390 Y120.450 E5.40027
G1 X174.920 Y120.800 E5.40686
G1 X174.670 Y120.960 E5.41021
G1 X174.170 Y121.250 E5.41671
G1 X173.380 Y121.620 E5.42653
G1 X172.830 Y121.820 E5.43312
G1 X172.550 Y121.900 E5.43640
G1 X171.690 Y122.080 E5.44629
G1 X171.110 Y122.150 E5.45287
G1 X123.000 Y124.170 E5.99501
G1 X77.000 Y124.170 E6.51291
G1 X28.870 Y122.150 E7.05527
G1 X28.580 Y122.120 E7.05855
G1 X27.720 Y121.970 E7.06838
G1 X27.150 Y121.810 E7.07504
G1 X26.330 Y121.510 E7.08487
G1 X25.550 Y121.110 E7.09474
G1 X24.820 Y120.630 E7.10458
G1 X24.370 Y120.260 E7.11114
G1 X23.940 Y119.860 E7.11775
G1 X23.360 Y119.210 E7.12756
G1 X23.010 Y118.740 E7.13416
G1 X22.850 Y118.490 E7.13750
G1 X12.860 Y102.480 E7.34996
G1 X12.560 Y101.940 E7.35692
G1 X12.290 Y101.380 E7.36392
G1 X12.070 Y100.790 E7.37101
G1 X11.900 Y100.190 E7.37803
G1 X11.830 Y99.890 E7.38150
G1 X11.730 Y99.270 E7.38857
G1 X11.680 Y98.650 E7.39557
G1 X11.680 Y86.060 E7.53732
G1 X11.760 Y85.200 E7.54704
G1 X11.940 Y84.350 E7.55682
G1 X12.110 Y83.800 E7.56330
G1 X12.310 Y83.260 E7.56979
G1 X12.700 Y82.480 E7.57961
G1 X13.000 Y81.990 E7.58607
G1 X13.340 Y81.530 E7.59251
G1 X13.910 Y80.870 E7.60233
G1 X14.330 Y80.480 E7.60879
G1 X14.780 Y80.110 E7.61534
G1 X15.010 Y79.940 E7.61856
G1 X15.500 Y79.630 E7.62509
G1 X16.010 Y79.350 E7.63164
G1 X16.530 Y79.110 E7.63809
G1 X17.070 Y78.910 E7.64457
G1 X17.586 Y78.763 E7.65062
G1 X17.390 Y79.130 F12000.000
G1 X17.950 Y78.990 F1680.000 E7.65712
G1 X18.230 Y78.940 E7.66032
G1 X19.070 Y78.840 E7.66984
G1 X66.570 Y76.140 E8.20550
G1 X67.000 Y76.130 E8.21034
G1 X133.430 Y76.140 E8.95826
G1 X180.930 Y78.840 E9.49391
G1 X181.490 Y78.900 E9.50025
G1 X182.050 Y78.990 E9.50663
G1 X182.610 Y79.130 E9.51313
G1 X183.150 Y79.310 E9.51954
G1 X183.670 Y79.530 E9.52590
G1 X184.180 Y79.790 E9.53234
G1 X184.660 Y80.090 E9.53872
G1 X184.900 Y80.250 E9.54196
G1 X185.340 Y80.600 E9.54829
G1 X185.770 Y80.980 E9.55476
G1 X186.160 Y81.400 E9.56121
G1 X186.340 Y81.610 E9.56432
G1 X186.680 Y82.070 E9.57076
G1 X186.990 Y82.550 E9.57720
G1 X187.260 Y83.050 E9.58359
G1 X187.490 Y83.570 E9.58999
G1 X187.680 Y84.110 E9.59644
G1 X187.830 Y84.660 E9.60286
G1 X187.930 Y85.220 E9.60926
G1 X188.000 Y85.780 E9.61562
G1 X188.020 Y86.350 E9.62204
G1 X188.020 Y98.340 E9.75703
G1 X187.960 Y99.240 E9.76719
G1 X187.870 Y99.830 E9.77391
G1 X187.730 Y100.410 E9.78062
G1 X187.640 Y100.700 E9.78404
G1 X187.310 Y101.540 E9.79420
G1 X187.030 Y102.070 E9.80095
G1 X176.710 Y118.580 E10.02016
G1 X176.540 Y118.820 E10.02347
G1 X175.980 Y119.490 E10.03330
G1 X175.560 Y119.900 E10.03991
G1 X175.120 Y120.280 E10.04646
G1 X174.400 Y120.770 E10.05626
G1 X173.890 Y121.060 E10.06287
G1 X173.090 Y121.410 E10.07270
G1 X172.530 Y121.590 E10.07932
G1 X171.680 Y121.770 E10.08910
G1 X170.810 Y121.860 E10.09895
G1 X123.000 Y123.870 E10.63770
G1 X77.000 Y123.870 E11.15560
G1 X29.170 Y121.860 E11.69458
G1 X28.590 Y121.810 E11.70114
G1 X27.730 Y121.660 E11.71097
G1 X27.450 Y121.590 E11.71422
G1 X26.890 Y121.410 E11.72084
G1 X26.090 Y121.060 E11.73067
G1 X25.830 Y120.920 E11.73400
G1 X25.090 Y120.450 E11.74387
G1 X24.410 Y119.900 E11.75371
G1 X23.800 Y119.270 E11.76358
G1 X23.440 Y118.810 E11.77016
G1 X23.110 Y118.330 E11.77672
G1 X13.120 Y102.320 E11.98918
G1 X12.690 Y101.530 E11.99931
G1 X12.460 Y100.980 E12.00602
G1 X12.270 Y100.410 E12.01279
G1 X12.130 Y99.830 E12.01951
G1 X12.080 Y99.530 E12.02293
G1 X12.010 Y98.940 E12.02962
G1 X11.980 Y98.340 E12.03638
G1 X11.980 Y86.350 E12.17137
G1 X12.000 Y85.780 E12.17780
G1 X12.030 Y85.500 E12.18097
G1 X12.170 Y84.660 E12.19055
G1 X12.320 Y84.110 E12.19697
G1 X12.510 Y83.570 E12.20342
G1 X12.870 Y82.800 E12.21299
G1 X13.160 Y82.310 E12.21940
G1 X13.660 Y81.610 E12.22908
G1 X14.230 Y80.980 E12.23865
G1 X14.660 Y80.600 E12.24511
G1 X15.100 Y80.250 E12.25144
G1 X15.820 Y79.790 E12.26106
G1 X16.330 Y79.530 E12.26750
G1 X16.850 Y79.310 E12.27386
G1 X17.347 Y79.144 E12.27976
G1 X17.170 Y79.520 F12000.000
G1 X17.710 Y79.360 F1680.000 E12.28610
G1 X18.260 Y79.240 E12.29244
G1 X19.090 Y79.150 E12.30183
G1 X66.590 Y76.450 E12.83749
G1 X67.000 Y76.440 E12.84210
G1 X133.000 Y76.440 E13.58518
G1 X133.410 Y76.450 E13.58980
G1 X180.910 Y79.150 E14.12545
G1 X181.470 Y79.200 E14.13178
G1 X182.290 Y79.360 E14.14119
G1 X182.830 Y79.520 E14.14753
G1 X183.350 Y79.720 E14.15380
G1 X183.860 Y79.960 E14.16015
G1 X184.340 Y80.240 E14.16640
G1 X184.800 Y80.560 E14.17271
G1 X185.240 Y80.910 E14.17904
G1 X185.650 Y81.290 E14.18533
G1 X185.840 Y81.500 E14.18852
G1 X186.200 Y81.930 E14.19484
G1 X186.530 Y82.380 E14.20112
G1 X186.820 Y82.860 E14.20743
G1 X187.070 Y83.360 E14.21373
G1 X187.370 Y84.150 E14.22324
G1 X187.520 Y84.680 E14.22944
G1 X187.630 Y85.230 E14.23576
G1 X187.670 Y85.510 E14.23894
G1 X187.710 Y86.070 E14.24526
G1 X187.710 Y98.630 E14.38667
G1 X187.660 Y99.200 E14.39311
G1 X187.510 Y100.050 E14.40283
G1 X187.350 Y100.600 E14.40928
G1 X187.150 Y101.140 E14.41576
G1 X186.770 Y101.920 E14.42553
G1 X176.610 Y118.170 E14.64130
G1 X176.290 Y118.640 E14.64771
G1 X175.760 Y119.280 E14.65706
G1 X175.360 Y119.680 E14.66343
G1 X174.710 Y120.200 E14.67280
G1 X174.000 Y120.650 E14.68227
G1 X173.500 Y120.910 E14.68861
G1 X172.720 Y121.210 E14.69802
G1 X172.180 Y121.360 E14.70433
G1 X171.350 Y121.510 E14.71383
G1 X170.790 Y121.560 E14.72016
G1 X123.300 Y123.560 E15.25531
G1 X76.700 Y123.560 E15.77996
G1 X29.190 Y121.560 E16.31534
G1 X28.630 Y121.510 E16.32167
G1 X27.800 Y121.360 E16.33116
G1 X27.260 Y121.210 E16.33747
G1 X26.480 Y120.910 E16.34688
G1 X25.980 Y120.650 E16.35323
G1 X25.500 Y120.360 E16.35954
G1 X24.830 Y119.860 E16.36895
G1 X24.220 Y119.280 E16.37843
G1 X23.680 Y118.630 E16.38794
G1 X23.370 Y118.170 E16.39419
G1 X13.380 Y102.160 E16.60665
G1 X13.070 Y101.620 E16.61366
G1 X12.940 Y101.340 E16.61714
G1 X12.710 Y100.770 E16.62406
G1 X12.520 Y100.180 E16.63104
G1 X12.390 Y99.570 E16.63806
G1 X12.310 Y98.960 E16.64499
G1 X12.290 Y98.650 E16.64849
G1 X12.290 Y86.070 E16.79012
G1 X12.330 Y85.510 E16.79644
G1 X12.480 Y84.680 E16.80594
G1 X12.720 Y83.880 E16.81534
G1 X12.930 Y83.360 E16.82165
G1 X13.180 Y82.860 E16.82795
G1 X13.630 Y82.150 E16.83741
G1 X14.160 Y81.500 E16.84685
G1 X14.350 Y81.290 E16.85004
G1 X14.760 Y80.910 E16.85634
G1 X15.200 Y80.560 E16.86267
G1 X15.660 Y80.240 E16.86898
G1 X16.140 Y79.960 E16.87523
G1 X16.390 Y79.840 E16.87835
G1 X17.127 Y79.536 E16.88733
G1 X17.220 Y79.820 F12000.000
G1 X17.750 Y79.660 F1680.000 E16.89357
G1 X18.020 Y79.600 E16.89668
G1 X18.560 Y79.500 E16.90286
G1 X19.110 Y79.450 E16.90908
G1 X67.000 Y76.740 E17.44912
G1 X133.000 Y76.740 E18.19220
G1 X180.890 Y79.450 E18.73224
G1 X181.440 Y79.500 E18.73846
G1 X182.250 Y79.660 E18.74776
G1 X182.780 Y79.820 E18.75399
G1 X183.540 Y80.140 E18.76327
G1 X184.260 Y80.550 E18.77260
G1 X184.920 Y81.040 E18.78186
G1 X185.520 Y81.600 E18.79110
G1 X185.890 Y82.020 E18.79740
G1 X186.210 Y82.460 E18.80352
G1 X186.640 Y83.170 E18.81287
G1 X186.870 Y83.670 E18.81907
G1 X187.060 Y84.180 E18.82519
G1 X187.270 Y84.980 E18.83451
G1 X187.360 Y85.530 E18.84078
G1 X187.410 Y86.070 E18.84689
G1 X187.410 Y98.340 E18.98503
G1 X187.390 Y98.930 E18.99168
G1 X187.310 Y99.520 E18.99838
G1 X187.100 Y100.390 E19.00846
G1 X186.900 Y100.950 E19.01515
G1 X186.510 Y101.750 E19.02517
G1 X176.200 Y118.250 E19.24422
G1 X175.860 Y118.700 E19.25057
G1 X175.500 Y119.120 E19.25680
G1 X174.880 Y119.690 E19.26628
G1 X174.200 Y120.180 E19.27572
G1 X173.720 Y120.460 E19.28198
G1 X173.220 Y120.700 E19.28822
G1 X172.700 Y120.900 E19.29449
G1 X172.160 Y121.060 E19.30083
G1 X171.340 Y121.210 E19.31022
G1 X171.060 Y121.240 E19.31339
G1 X123.000 Y123.260 E19.85496
G1 X77.000 Y123.260 E20.37286
G1 X28.920 Y121.240 E20.91466
G1 X28.640 Y121.210 E20.91783
G1 X27.820 Y121.060 E20.92722
G1 X27.280 Y120.900 E20.93356
G1 X26.760 Y120.700 E20.93983
G1 X26.010 Y120.320 E20.94930
G1 X25.770 Y120.180 E20.95242
G1 X25.310 Y119.860 E20.95873
G1 X24.880 Y119.500 E20.96505
G1 X24.290 Y118.910 E20.97444
G1 X23.940 Y118.470 E20.98077
G1 X23.630 Y118.010 E20.98702
G1 X13.640 Y102.000 E21.19948
G1 X13.340 Y101.480 E21.20624
G1 X13.220 Y101.220 E21.20946
G1 X12.990 Y100.670 E21.21618
G1 X12.820 Y100.100 E21.22287
G1 X12.690 Y99.520 E21.22956
G1 X12.610 Y98.930 E21.23627
G1 X12.590 Y98.340 E21.24291
G1 X12.590 Y86.070 E21.38106
G1 X12.640 Y85.530 E21.38716
G1 X12.730 Y84.980 E21.39344
G1 X12.860 Y84.450 E21.39958
G1 X13.030 Y83.920 E21.40585
G1 X13.360 Y83.170 E21.41507
G1 X13.790 Y82.460 E21.42442
G1 X14.110 Y82.020 E21.43055
G1 X14.290 Y81.810 E21.43366
G1 X14.870 Y81.220 E21.44297
G1 X15.520 Y80.700 E21.45235
G1 X15.980 Y80.400 E21.45853
G1 X16.460 Y80.140 E21.46468
G1 X17.178 Y79.837 E21.47345
G1 X17.280 Y80.130 F12000.000
G1 X17.530 Y80.040 F1680.000 E21.47644
G1 X18.060 Y79.900 E21.48261
G1 X18.860 Y79.770 E21.49174
G1 X19.130 Y79.750 E21.49478
G1 X67.000 Y77.040 E22.03460
G1 X133.000 Y77.040 E22.77768
G1 X181.140 Y79.770 E23.32054
G1 X181.940 Y79.900 E23.32967
G1 X182.470 Y80.040 E23.33584
G1 X182.980 Y80.220 E23.34193
G1 X183.710 Y80.570 E23.35104
G1 X184.170 Y80.860 E23.35716
G1 X184.610 Y81.170 E23.36322
G1 X185.020 Y81.530 E23.36937
G1 X185.390 Y81.910 E23.37534
G1 X185.900 Y82.540 E23.38446
G1 X186.330 Y83.230 E23.39362
G1 X186.560 Y83.720 E23.39971
G1 X186.840 Y84.480 E23.40883
G1 X186.970 Y85.010 E23.41498
G1 X187.060 Y85.540 E23.42103
G1 X187.090 Y85.810 E23.42409
G1 X187.110 Y86.350 E23.43017
G1 X187.110 Y98.340 E23.56516
G1 X187.050 Y99.190 E23.57476
G1 X186.960 Y99.750 E23.58114
G1 X186.810 Y100.300 E23.58756
G1 X186.510 Y101.090 E23.59707
G1 X186.250 Y101.600 E23.60352
G1 X175.940 Y118.090 E23.82248
G1 X175.610 Y118.530 E23.82867
G1 X175.240 Y118.950 E23.83497
G1 X175.040 Y119.140 E23.83808
G1 X174.400 Y119.680 E23.84750
G1 X173.930 Y119.990 E23.85384
G1 X173.450 Y120.260 E23.86004
G1 X172.680 Y120.590 E23.86948
G1 X172.140 Y120.750 E23.87582
G1 X171.320 Y120.900 E23.88520
G1 X170.770 Y120.950 E23.89142
G1 X123.000 Y122.960 E24.42972
G1 X77.000 Y122.960 E24.94763
G1 X29.210 Y120.950 E25.48616
G1 X28.660 Y120.900 E25.49237
G1 X27.840 Y120.750 E25.50176
G1 X27.040 Y120.490 E25.51123
G1 X26.530 Y120.260 E25.51753
G1 X26.040 Y119.990 E25.52383
G1 X25.580 Y119.680 E25.53007
G1 X24.940 Y119.140 E25.53950
G1 X24.550 Y118.740 E25.54579
G1 X24.200 Y118.310 E25.55203
G1 X23.880 Y117.850 E25.55834
G1 X13.890 Y101.840 E25.77081
G1 X13.490 Y101.090 E25.78038
G1 X13.280 Y100.560 E25.78679
G1 X13.110 Y100.020 E25.79317
G1 X13.040 Y99.750 E25.79631
G1 X12.950 Y99.190 E25.80269
G1 X12.890 Y98.340 E25.81229
G1 X12.890 Y86.350 E25.94728
G1 X12.910 Y85.810 E25.95336
G1 X13.030 Y85.010 E25.96247
G1 X13.240 Y84.230 E25.97157
G1 X13.440 Y83.720 E25.97773
G1 X13.670 Y83.230 E25.98383
G1 X14.100 Y82.540 E25.99298
G1 X14.610 Y81.910 E26.00211
G1 X14.980 Y81.530 E26.00808
G1 X15.390 Y81.170 E26.01422
G1 X15.830 Y80.860 E26.02028
G1 X16.290 Y80.570 E26.02640
G1 X17.020 Y80.220 E26.03552
G1 X17.237 Y80.145 E26.03810
G1 X17.380 Y80.410 F12000.000
G1 X17.870 Y80.260 F1680.000 E26.04387
G1 X18.370 Y80.150 E26.04964
G1 X19.140 Y80.060 E26.05836
G1 X67.000 Y77.350 E26.59807
G1 X133.000 Y77.350 E27.34115
G1 X181.110 Y80.080 E27.88367
G1 X181.880 Y80.200 E27.89245
G1 X182.620 Y80.410 E27.90111
G1 X183.100 Y80.610 E27.90696
G1 X183.560 Y80.840 E27.91275
G1 X184.000 Y81.110 E27.91856
G1 X184.420 Y81.410 E27.92438
G1 X184.810 Y81.750 E27.93020
G1 X185.170 Y82.120 E27.93601
G1 X185.500 Y82.510 E27.94177
G1 X185.800 Y82.930 E27.94758
G1 X186.180 Y83.610 E27.95635
G1 X186.380 Y84.080 E27.96210
G1 X186.550 Y84.570 E27.96794
G1 X186.720 Y85.320 E27.97659
G1 X186.760 Y85.580 E27.97956
G1 X186.800 Y86.090 E27.98532
G1 X186.800 Y98.610 E28.12628
G1 X186.780 Y98.880 E28.12932
G1 X186.660 Y99.680 E28.13843
G1 X186.520 Y100.210 E28.14460
G1 X186.340 Y100.720 E28.15069
G1 X185.980 Y101.450 E28.15986
G1 X175.690 Y117.910 E28.37841
G1 X175.370 Y118.340 E28.38444
G1 X175.020 Y118.740 E28.39043
G1 X174.430 Y119.270 E28.39936
G1 X174.000 Y119.590 E28.40539
G1 X173.310 Y119.990 E28.41437
G1 X172.580 Y120.300 E28.42330
G1 X172.070 Y120.450 E28.42928
G1 X171.280 Y120.600 E28.43834
G1 X170.760 Y120.650 E28.44422
G1 X123.270 Y122.650 E28.97937
G1 X76.730 Y122.650 E29.50335
G1 X28.960 Y120.630 E30.04166
G1 X28.430 Y120.560 E30.04768
G1 X27.660 Y120.380 E30.05658
G1 X27.400 Y120.300 E30.05964
G1 X26.910 Y120.100 E30.06560
G1 X26.430 Y119.860 E30.07164
G1 X25.980 Y119.590 E30.07755
G1 X25.350 Y119.100 E30.08654
G1 X24.780 Y118.540 E30.09554
G1 X24.440 Y118.130 E30.10153
G1 X24.140 Y117.690 E30.10753
G1 X14.150 Y101.680 E30.31999
G1 X13.890 Y101.210 E30.32604
G1 X13.660 Y100.710 E30.33224
G1 X13.560 Y100.460 E30.33527
G1 X13.400 Y99.950 E30.34129
G1 X13.290 Y99.420 E30.34738
G1 X13.200 Y98.610 E30.35656
G1 X13.200 Y86.090 E30.49751
G1 X13.240 Y85.580 E30.50327
G1 X13.330 Y85.070 E30.50910
G1 X13.450 Y84.570 E30.51489
G1 X13.530 Y84.320 E30.51785
G1 X13.820 Y83.610 E30.52648
G1 X14.200 Y82.930 E30.53525
G1 X14.660 Y82.310 E30.54395
G1 X15.190 Y81.750 E30.55263
G1 X15.580 Y81.410 E30.55845
G1 X16.000 Y81.110 E30.56426
G1 X16.670 Y80.720 E30.57299
G1 X17.338 Y80.428 E30.58120
G1 F3000.000 E27.58120
G1 Z0.450
G92 E0
G1 X73.846 Y93.005 F12000.000
G1 Z0.250
G1 F3000.000 E3.00000
G1 X74.172 Y92.217 F1680.000 E3.00960
G1 X74.691 Y91.541 E3.01920
G1 X75.367 Y91.022 E3.02879
G1 X76.025 Y90.749 E3.03681
G1 X76.155 Y90.696 E3.03839
G1 X77.000 Y90.584 E3.04799
G1 X77.845 Y90.696 E3.05759
G1 X78.633 Y91.022 E3.06719
G1 X79.198 Y91.455 E3.07520
G1 X79.309 Y91.541 E3.07679
G1 X79.828 Y92.217 E3.08638
G1 X80.154 Y93.005 E3.09598
G1 X80.259 Y93.800 E3.10501
G1 X80.259 Y108.900 E3.27502
G1 X80.154 Y109.695 E3.28405
